assets/noun_1210680_cc.svg

<svg fill="#f56c0e" viewBox="0 0 100 100" xmlns="http://www.w3.org/2000/svg"><path d="m50 4.23a9.89 9.89 0 0 0 -5.6 1.77 151.58 151.58 0 0 1 -33.53 17.13c.11 22.24 4.3 38.81 12.79 50.68 6.91 9.65 15.78 15.27 24.34 20.71l2 1.26 2-1.26c8.58-5.43 17.45-11.05 24.36-20.71 8.48-11.87 12.64-28.45 12.77-50.68a151.53 151.53 0 0 1 -33.53-17.13 9.89 9.89 0 0 0 -5.6-1.77zm21.46 66.09c-5.92 8.28-13.46 13.26-21.46 18.35-8-5.09-15.54-10.07-21.46-18.35-7.23-10.1-11-24.22-11.6-43.09a155.07 155.07 0 0 0 30.86-16.32 3.91 3.91 0 0 1 4.41 0 155.14 155.14 0 0 0 30.85 16.32c-.56 18.86-4.37 32.98-11.6 43.09z"/><path d="m31.44 41.05a18.54 18.54 0 0 0 8 15.24l-.61 16.16s0 .08 0 .11a3.48 3.48 0 0 0 2.1 3.21 3.43 3.43 0 0 0 3.64-.6l5.43-4.66 5.42 4.66a3.43 3.43 0 0 0 3.64.6 3.48 3.48 0 0 0 2.1-3.21s0-.08 0-.11l-.61-16.16a18.55 18.55 0 1 0 -29.11-15.24zm23.5 25.8-2.65-2.28a3.44 3.44 0 0 0 -4.58 0l-2.65 2.29.29-7.86a17.93 17.93 0 0 0 9.3 0zm7.61-25.8a12.55 12.55 0 0 1 -6 10.66 3 3 0 0 0 -1.07.59 12.41 12.41 0 0 1 -11.07 0 3 3 0 0 0 -1.07-.59 12.55 12.55 0 1 1 19.22-10.66z"/><path d="m46.78 39a3 3 0 0 0 -4.24 4.24l3.57 3.57a3 3 0 0 0 4.08.15l7.11-6.11a3 3 0 0 0 -3.91-4.55l-5 4.3z"/></svg>

<svg xmlns="http://www.w3.org/2000/svg" data-name="Layer 1" viewBox="0 0 100 100" x="0px" y="0px" fill="#f56c0e"><title>79 all</title><path d="M50,4.23A9.89,9.89,0,0,0,44.4,6,151.58,151.58,0,0,1,10.87,23.13c.11,22.24,4.3,38.81,12.79,50.68C30.57,83.46,39.44,89.08,48,94.52l2,1.26,2-1.26c8.58-5.43,17.45-11.05,24.36-20.71C84.84,61.94,89,45.36,89.13,23.13A151.53,151.53,0,0,1,55.6,6,9.89,9.89,0,0,0,50,4.23ZM71.46,70.32C65.54,78.6,58,83.58,50,88.67,42,83.58,34.46,78.6,28.54,70.32c-7.23-10.1-11-24.22-11.6-43.09A155.07,155.07,0,0,0,47.8,10.91a3.91,3.91,0,0,1,4.41,0A155.14,155.14,0,0,0,83.06,27.23C82.5,46.09,78.69,60.21,71.46,70.32Z"/><path d="M31.44,41.05a18.54,18.54,0,0,0,8,15.24l-.61,16.16s0,.08,0,.11a3.48,3.48,0,0,0,2.1,3.21,3.43,3.43,0,0,0,3.64-.6L50,70.51l5.42,4.66a3.43,3.43,0,0,0,3.64.6,3.48,3.48,0,0,0,2.1-3.21s0-.08,0-.11l-.61-16.16A18.55,18.55,0,1,0,31.44,41.05Zm23.5,25.8-2.65-2.28a3.44,3.44,0,0,0-4.58,0l-2.65,2.29L45.35,59a17.93,17.93,0,0,0,9.3,0Zm7.61-25.8a12.55,12.55,0,0,1-6,10.66,3,3,0,0,0-1.07.59,12.41,12.41,0,0,1-11.07,0,3,3,0,0,0-1.07-.59A12.55,12.55,0,1,1,62.56,41.05Z"/><path d="M46.78,39a3,3,0,0,0-4.24,4.24l3.57,3.57a3,3,0,0,0,4.08.15l7.11-6.11a3,3,0,0,0-3.91-4.55l-5,4.3Z"/>
<!--
<text x="0" y="115" stroke="#0d3862" fill="#0d3862" font-size="5px" font-weight="bold" font-family="'Helvetica Neue', Helvetica, Arial-Unicode, Arial, Sans-serif">Created by Anil</text><text x="0" y="120" fill="#000000" font-size="5px" font-weight="bold" font-family="'Helvetica Neue', Helvetica, Arial-Unicode, Arial, Sans-serif">from the Noun Project</text>
-->
</svg>
